public/Images/mission.svg

<svg width="49" height="49" viewBox="0 0 49 49" fill="none" xmlns="http://www.w3.org/2000/svg">
<path d="M48.0502 9.84733C48.047 9.84733 48.0438 9.84733 48.0407 9.84733H44.8209V8.74557C44.8382 8.30949 44.5561 7.91758 44.137 7.79577C41.9017 7.20998 39.5999 6.91626 37.289 6.92196C33.4898 6.92196 28.3134 7.77677 24.4858 11.6709C20.6866 7.73878 15.4722 6.92196 11.6825 6.92196C9.37164 6.91626 7.06981 7.20998 4.83446 7.79577C4.41537 7.91758 4.13328 8.30949 4.15061 8.74557V9.83783H0.949796C0.425271 9.83783 0 10.2631 0 10.7876V41.1241C0 41.6486 0.425271 42.0739 0.949796 42.0739C1.11292 42.0734 1.2732 42.0309 1.4152 41.9504C1.51018 41.903 11.0081 36.7076 24.2673 40.0508H24.4098H24.4953C24.571 40.06 24.6475 40.06 24.7232 40.0508C38.0204 36.6791 47.5183 41.865 47.5753 41.9504C47.8691 42.1201 48.2313 42.1201 48.5251 41.9504C48.8172 41.7818 48.998 41.4709 49 41.1336V10.7971C49 10.2726 48.5748 9.84733 48.0502 9.84733ZM1.89959 39.6139V11.7469H4.16961V35.5678C4.16367 36.0923 4.58407 36.5224 5.1086 36.5283C5.15989 36.5289 5.21118 36.5253 5.26187 36.5176C7.22676 36.2176 9.21053 36.0589 11.1981 36.0427C13.9513 35.995 16.693 36.4091 19.3094 37.2679C13.401 36.5535 7.40806 37.361 1.89959 39.6139ZM11.1981 34.1526C9.47054 34.1565 7.745 34.2675 6.03121 34.485V9.4959C7.88046 9.08393 9.76889 8.87367 11.6635 8.86904C15.2157 8.86904 20.1167 9.68586 23.517 13.523L23.5455 37.1825C21.5699 35.8907 17.7137 34.1526 11.1981 34.1526ZM25.445 13.523C28.8453 9.72386 33.7463 8.86904 37.2985 8.86904C39.193 8.87462 41.0814 9.08476 42.9308 9.4959V34.485C41.2266 34.2655 39.5106 34.1513 37.7924 34.1431C31.3148 34.1431 27.4491 35.8812 25.445 37.173V13.523ZM47.0909 39.6139C41.5707 37.3549 35.5639 36.5472 29.6431 37.2679C32.2718 36.406 35.0266 35.9918 37.7924 36.0427C39.7924 36.0539 41.789 36.2094 43.7666 36.5081C44.2852 36.5868 44.7695 36.2302 44.8482 35.7116C44.8559 35.6609 44.8595 35.6096 44.8589 35.5583V11.7469H47.1289L47.0909 39.6139Z" fill="#D7DDE0"/>
</svg>

<svg xmlns="http://www.w3.org/2000/svg" width="49" height="49" fill="none"><path d="M48.05 9.847h-3.23V8.746a.95.95 0 0 0-.684-.95c-2.235-.586-4.537-.88-6.848-.874-3.8 0-8.976.855-12.803 4.75-3.8-3.932-9.014-4.75-12.803-4.75-2.31-.006-4.613.288-6.848.874a.95.95 0 0 0-.684.95v1.092H.95a.95.95 0 0 0-.95.95v30.337a.95.95 0 0 0 .95.95.95.95 0 0 0 .465-.123c.095-.047 9.593-5.243 22.852-1.9h.228c.076.01.152.01.228 0 13.297-3.372 22.795 1.814 22.852 1.9A.95.95 0 0 0 49 41.134V10.797a.95.95 0 0 0-.95-.95zM1.9 39.614V11.747h2.27v23.82a.95.95 0 0 0 .939.961c.05.001.103-.003.153-.01 1.965-.3 3.95-.46 5.936-.475a24.64 24.64 0 0 1 8.111 1.225A34.92 34.92 0 0 0 1.9 39.614zm9.3-5.46c-1.728.004-3.453.115-5.167.332V9.496c1.85-.412 3.738-.622 5.632-.627 3.552 0 8.453.817 11.853 4.654l.03 23.66c-1.976-1.292-5.832-3.03-12.347-3.03zm14.247-20.63c3.4-3.8 8.3-4.654 11.853-4.654a26.31 26.31 0 0 1 5.632.627v24.99c-1.704-.22-3.42-.334-5.138-.342-6.478 0-10.343 1.738-12.347 3.03v-23.65zm21.646 26.09c-5.52-2.26-11.527-3.067-17.448-2.346a24.7 24.7 0 0 1 8.149-1.225 41.56 41.56 0 0 1 5.974.465.95.95 0 0 0 1.092-.95v-23.81h2.27l-.038 27.867z" fill="#d7dde0"/></svg>
